packages/foundations/assets/icons/functional/images/layout/fullscreen_exit_14.svg

<svg width="14" height="14" viewBox="0 0 14 14" fill="none" xmlns="http://www.w3.org/2000/svg">
<g clip-path="url(#clip0_185_1342)">
<path fill-rule="evenodd" clip-rule="evenodd" d="M2.80649 7.70651L5.59998 7.7C5.98743 7.7 6.29347 8.02557 6.29347 8.41302L6.29998 11.2C6.29998 11.5874 5.98743 11.9 5.59998 11.9C5.21253 11.9 4.89998 11.5874 4.89998 11.2V9.1H2.79998C2.41253 9.1 2.09998 8.78745 2.09998 8.4C2.09998 8.01255 2.41904 7.70651 2.80649 7.70651ZM11.2 7.7C11.5874 7.7 11.9 8.01255 11.9 8.4C11.9 8.78745 11.5646 9.1 11.2 9.1H9.09998V11.2C9.09998 11.5874 8.78743 11.9 8.39998 11.9C8.01253 11.9 7.69998 11.5874 7.69998 11.2L7.70649 8.41302C7.70649 8.02557 8.01253 7.7 8.39998 7.7H11.2ZM11.2033 6.3H8.39998C8.01253 6.3 7.69998 5.98745 7.69998 5.6L7.70649 2.80651C7.70649 2.41906 7.99951 2.10651 8.38696 2.10651C8.77441 2.10651 9.09998 2.43859 9.09998 2.82604V4.9H11.1968C11.5614 4.9 11.9 5.21255 11.9 5.6C11.9 5.98745 11.5906 6.3 11.2033 6.3ZM2.80649 6.29349C2.41904 6.29349 2.09998 5.98745 2.09998 5.6C2.09998 5.21255 2.41253 4.9 2.79998 4.9H4.89998V2.82604C4.89998 2.43859 5.19951 2.1 5.58696 2.1C5.97441 2.1 6.29347 2.41906 6.29347 2.80651L6.29998 5.6C6.29998 5.98745 5.98743 6.3 5.59998 6.3L2.80649 6.29349Z" fill="#1A1C1F"/>
</g>
<defs>
<clipPath id="clip0_185_1342">
<rect width="14" height="14" fill="white"/>
</clipPath>
</defs>
</svg>

<svg xmlns="http://www.w3.org/2000/svg" width="14" height="14" fill="none"><g clip-path="url(#a)"><path fill="#1A1C1F" fill-rule="evenodd" d="M2.806 7.707 5.6 7.7c.387 0 .693.326.693.713L6.3 11.2a.699.699 0 1 1-1.4 0V9.1H2.8a.7.7 0 0 1-.7-.7c0-.387.319-.693.706-.693M11.2 7.7c.387 0 .7.313.7.7s-.335.7-.7.7H9.1v2.1a.699.699 0 1 1-1.4 0l.006-2.787c0-.387.307-.713.694-.713zm.003-1.4H8.4a.7.7 0 0 1-.7-.7l.006-2.793c0-.388.294-.7.681-.7s.713.332.713.719V4.9h2.097c.364 0 .703.313.703.7s-.31.7-.697.7m-8.397-.007A.7.7 0 0 1 2.1 5.6c0-.387.313-.7.7-.7h2.1V2.826c0-.387.3-.726.687-.726a.71.71 0 0 1 .706.707L6.3 5.6c0 .387-.313.7-.7.7z" clip-rule="evenodd"/></g><defs><clipPath id="a"><path fill="#fff" d="M0 0h14v14H0z"/></clipPath></defs></svg>
